www/images/profil.svg

<svg fill="none" height="75" viewBox="0 0 75 75" width="75" xmlns="http://www.w3.org/2000/svg"><path clip-rule="evenodd" d="m22.1997 58.5415.8078-7.5883c.6676-5.7323 5.314-10.0739 10.9518-10.0739h7.6338c5.4759 0 10.2844 4.3416 10.9518 10.2434l1.0699 7.4495c6.2229-4.7359 10.24-12.2212 10.24-20.6448 0-14.3193-11.6081-25.9274-25.9274-25.9274s-25.9274 11.6081-25.9274 25.9274c0 8.4054 3.9997 15.8766 10.1997 20.6141zm44.6551-20.6141c0 15.9762-12.9513 28.9274-28.9274 28.9274-15.9762 0-28.9274-12.9512-28.9274-28.9274 0-15.9761 12.9512-28.92736 28.9274-28.92736 15.9761 0 28.9274 12.95126 28.9274 28.92736zm-18.8914-10.0359c0 5.8724-4.7593 10.6264-10.6298 10.6264-5.8638 0-10.623-4.754-10.623-10.6264 0-5.8656 4.7592-10.6263 10.623-10.6263 5.8705 0 10.6298 4.7607 10.6298 10.6263z" fill="#fff" fill-rule="evenodd"/></svg>

<svg width="75" height="75" viewBox="0 0 75 75" fill="none" xmlns="http://www.w3.org/2000/svg">
<path fill-rule="evenodd" clip-rule="evenodd" d="M22.1997 58.5415L23.0075 50.9532C23.6751 45.2209 28.3215 40.8793 33.9593 40.8793H41.5931C47.069 40.8793 51.8775 45.2209 52.5449 51.1227L53.6148 58.5722C59.8377 53.8363 63.8548 46.351 63.8548 37.9274C63.8548 23.6081 52.2467 12 37.9274 12C23.6081 12 12 23.6081 12 37.9274C12 46.3328 15.9997 53.804 22.1997 58.5415ZM66.8548 37.9274C66.8548 53.9036 53.9035 66.8548 37.9274 66.8548C21.9512 66.8548 9 53.9036 9 37.9274C9 21.9513 21.9512 9.00004 37.9274 9.00004C53.9035 9.00004 66.8548 21.9513 66.8548 37.9274ZM47.9634 27.8915C47.9634 33.7639 43.2041 38.5179 37.3336 38.5179C31.4698 38.5179 26.7106 33.7639 26.7106 27.8915C26.7106 22.0259 31.4698 17.2652 37.3336 17.2652C43.2041 17.2652 47.9634 22.0259 47.9634 27.8915Z" fill="white"/>
</svg>
